third_party/noto/noto_2/emoji_u1f17f.svg

<svg enable-background="new 0 0 128 128" version="1.1" viewBox="0 0 128 128" xmlns="http://www.w3.org/2000/svg"><path d="m116 4h-104c-4.42 0-8 3.58-8 8v104c0 4.42 3.58 8 8 8h104c4.42 0 8-3.58 8-8v-104c0-4.42-3.58-8-8-8z" fill="#427687"/><path d="m109.7 4h-98.2c-4.13 0.03-7.47 3.37-7.5 7.5v97.9c-0.01 4.14 3.34 7.49 7.48 7.5h0.02 98.1c4.14 0.01 7.49-3.34 7.5-7.48v-0.02-97.9c0.09-4.05-3.13-7.41-7.18-7.5h-0.22z" fill="#8CAFBF"/><path d="m46.4 77.3v28.7c0 1.1-0.9 2-2 2h-11.3c-1.1 0-2-0.9-2-2v-84c0-1.1 0.9-2 2-2h31.7c9.8 0 17.6 2.6 23.4 7.7s8.7 11.9 8.7 20.3c0 8.6-2.8 15.3-8.5 20.2s-13.6 7.2-23.8 7.2h-16.2c-1.06-0.04-1.95 0.78-2 1.84v0.06zm0-16.2c0 1.1 0.9 2 2 2h16.4c5.4 0 9.6-1.3 12.4-3.8s4.3-6.3 4.3-11.1-1.4-8.5-4.3-11.4-6.9-4.3-12-4.4h-16.8c-1.1 0-2 0.9-2 2v26.7z" fill="#FAFAFA"/><path d="m39.7 12.9c0-2.3-1.6-3-10.8-2.7-7.7 0.3-11.5 1.2-13.8 4s-2.9 8.5-3 15.3c0 4.8 0 9.3 2.5 9.3 3.4 0 3.4-7.9 6.2-12.3 5.4-8.7 18.9-10.6 18.9-13.6z" enable-background="new" fill="#B4E1ED" opacity=".5"/></svg>

<?xml version="1.0" encoding="utf-8"?>
<!-- Generator: Adobe Illustrator 25.2.3, SVG Export Plug-In . SVG Version: 6.00 Build 0)  -->
<svg version="1.1" id="Layer_2" xmlns="http://www.w3.org/2000/svg" xmlns:xlink="http://www.w3.org/1999/xlink" x="0px" y="0px"
	 viewBox="0 0 128 128" style="enable-background:new 0 0 128 128;" xml:space="preserve">
<g>
	<path style="fill:#427687;" d="M116,4H12c-4.42,0-8,3.58-8,8v104c0,4.42,3.58,8,8,8h104c4.42,0,8-3.58,8-8V12
		C124,7.58,120.42,4,116,4z"/>
	<path style="fill:#8CAFBF;" d="M109.7,4H11.5C7.37,4.03,4.03,7.37,4,11.5v97.9c-0.01,4.14,3.34,7.49,7.48,7.5c0.01,0,0.01,0,0.02,0
		h98.1c4.14,0.01,7.49-3.34,7.5-7.48c0-0.01,0-0.01,0-0.02V11.5c0.09-4.05-3.13-7.41-7.18-7.5C109.85,4,109.77,4,109.7,4z"/>
	<path style="fill:#FAFAFA;" d="M46.4,77.3V106c0,1.1-0.9,2-2,2H33.1c-1.1,0-2-0.9-2-2V22c0-1.1,0.9-2,2-2h31.7
		c9.8,0,17.6,2.6,23.4,7.7s8.7,11.9,8.7,20.3c0,8.6-2.8,15.3-8.5,20.2s-13.6,7.2-23.8,7.2H48.4c-1.06-0.04-1.95,0.78-2,1.84
		C46.4,77.26,46.4,77.28,46.4,77.3z M46.4,61.1c0,1.1,0.9,2,2,2h16.4c5.4,0,9.6-1.3,12.4-3.8s4.3-6.3,4.3-11.1s-1.4-8.5-4.3-11.4
		s-6.9-4.3-12-4.4H48.4c-1.1,0-2,0.9-2,2V61.1z"/>
	<path style="opacity:0.5;fill:#B4E1ED;enable-background:new    ;" d="M39.7,12.9c0-2.3-1.6-3-10.8-2.7c-7.7,0.3-11.5,1.2-13.8,4
		s-2.9,8.5-3,15.3c0,4.8,0,9.3,2.5,9.3c3.4,0,3.4-7.9,6.2-12.3C26.2,17.8,39.7,15.9,39.7,12.9z"/>
</g>
</svg>
